X:27
T:Fugue in E-Minor
C: J.S. Bach
N:
L:1/8
Q:1/4=180
M:4/4
K:C
zB AB GB ^FB | EB ^DB EB ^FB | GB B,B ^CB ^DB | EB ^DB EB ^FB | Ge de ce Be | 
Ae ^Ge Ae Be | ce Ee ^Fe ^Ge | Ae ^Ge Ae Be | cE eE cE eE | fD AD fD AD | dG BG dG BD | 
eE GE eE GE | c^F AF cF AF | ^d^D ^FD dD FD | BE GE BE GE | AB, ^DB, AB, DB, | 
GB, EB, GB, EB, | ^FA CA FA CA, | Gb ab gb ^fb | gb ^db eb ^fb | gb Bb ^cb ^db | 
eb ^db eb ^fb | gb ^fb eb db | cb db ea ca | ^fa ea da ca | Ba ca dg Bg | eg dg cg Bg | 
Ag Bg c^f Af | ^d^f cf Bf Af | G^f Af Be Ge | ^F^f Ff Ee Ee | c^d cd Be Ge | ^F^f Ff Ee B,^d | 
[e8B8G8E8] | 
 

